packages/calcite-ui-icons/icons/line-intersection-16.svg

<?xml version="1.0" encoding="UTF-8"?><svg id="icons" xmlns="http://www.w3.org/2000/svg" viewBox="0 0 16 16"><defs><style>.cls-1{fill:none;}</style></defs><rect class="cls-1" x="0" width="16" height="16" transform="translate(0 16) rotate(-90)"/><path d="M4,7H0v-1h4v1ZM5.69006,4L3.45801.01953l-.87305.48828,1.95825,3.49219h1.14685ZM7.34698,9l3.92255,6.99512.87305-.48828-3.64874-6.50684h-1.14685ZM9,6v1h7v-1h-7ZM8,5v3h-3v-3h3ZM7,6h-1v1h1v-1Z"/></svg>

<svg xmlns="http://www.w3.org/2000/svg" viewBox="0 0 16 16"><path d="M0 0h16v16H0z" style="fill:none" transform="rotate(-90 8 8)"/><path d="M4 7H0V6h4zm1.69-3L3.458.02l-.873.488L4.543 4zm1.657 5 3.923 6.995.873-.488L8.493 9zM9 6v1h7V6zM8 5v3H5V5zM7 6H6v1h1z"/></svg>
